X:1
T:Shanghai Bund
C:www.vmiis.com
M:4/4
L:1/8
Q:1/4=80
K:C
V:1
eg|:a6eg|d6eg|ac'2ag2ce|d6de|
g6de|A6Ac|1d3edBAc|G6eg:|d3edBAG|c8| 
V:2 celf=bass
zz|:A,,E,A,CE4|G,,D,G,B,D4|A,,E,A,CE4|G,,D,G,B, D4|
E,,B,,E,G,B,4|A,,E,A,CE4|1 D,,A,,D,^F,A,4|G,,D,G,B, D4:|G,,D,G,B, D4|C,G,CEC4|